svgs/light/cart-flatbed-boxes.svg

<svg xmlns="http://www.w3.org/2000/svg" viewBox="0 0 640 512"><!--! Font Awesome Pro 6.6.0 by @fontawesome - https://fontawesome.com License - https://fontawesome.com/license (Commercial License) Copyright 2024 Fonticons, Inc. --><path d="M16 0C7.2 0 0 7.2 0 16s7.2 16 16 16l64 0c8.8 0 16 7.2 16 16l0 320c0 26.5 21.5 48 48 48l24.6 0c-5.4 9.4-8.6 20.3-8.6 32c0 35.3 28.7 64 64 64s64-28.7 64-64c0-11.7-3.1-22.6-8.6-32l177.1 0c-5.4 9.4-8.6 20.3-8.6 32c0 35.3 28.7 64 64 64s64-28.7 64-64c0-11.7-3.1-22.6-8.6-32l56.6 0c8.8 0 16-7.2 16-16s-7.2-16-16-16l-112 0-288 0-80 0c-8.8 0-16-7.2-16-16l0-320c0-26.5-21.5-48-48-48L16 0zM544 448a32 32 0 1 1 -64 0 32 32 0 1 1 64 0zM224 480a32 32 0 1 1 0-64 32 32 0 1 1 0 64zm0-416l128 0 0 224-128 0 0-224zm-32 0l0 224c0 17.7 14.3 32 32 32l128 0c17.7 0 32-14.3 32-32l0-224c0-17.7-14.3-32-32-32L224 32c-17.7 0-32 14.3-32 32zm320 0l0 64-64 0 0-64 64 0zM448 32c-17.7 0-32 14.3-32 32l0 64c0 17.7 14.3 32 32 32l64 0c17.7 0 32-14.3 32-32l0-64c0-17.7-14.3-32-32-32l-64 0zm0 192l128 0 0 64-128 0 0-64zm-32 0l0 64c0 17.7 14.3 32 32 32l128 0c17.7 0 32-14.3 32-32l0-64c0-17.7-14.3-32-32-32l-128 0c-17.7 0-32 14.3-32 32z"/></svg>

<svg xmlns="http://www.w3.org/2000/svg" viewBox="0 0 640 512"><!--! Font Awesome Pro 6.4.2 by @fontawesome - https://fontawesome.com License - https://fontawesome.com/license (Commercial License) Copyright 2023 Fonticons, Inc. --><path d="M16 0C7.2 0 0 7.2 0 16s7.2 16 16 16H80c8.8 0 16 7.2 16 16V368c0 26.5 21.5 48 48 48h24.6c-5.4 9.4-8.6 20.3-8.6 32c0 35.3 28.7 64 64 64s64-28.7 64-64c0-11.7-3.1-22.6-8.6-32H456.6c-5.4 9.4-8.6 20.3-8.6 32c0 35.3 28.7 64 64 64s64-28.7 64-64c0-11.7-3.1-22.6-8.6-32H624c8.8 0 16-7.2 16-16s-7.2-16-16-16H512 224 144c-8.8 0-16-7.2-16-16V48c0-26.5-21.5-48-48-48H16zM544 448a32 32 0 1 1 -64 0 32 32 0 1 1 64 0zM224 480a32 32 0 1 1 0-64 32 32 0 1 1 0 64zm0-416H352V288H224l0-224zm-32 0V288c0 17.7 14.3 32 32 32H352c17.7 0 32-14.3 32-32V64c0-17.7-14.3-32-32-32H224c-17.7 0-32 14.3-32 32zm320 0v64H448V64h64zM448 32c-17.7 0-32 14.3-32 32v64c0 17.7 14.3 32 32 32h64c17.7 0 32-14.3 32-32V64c0-17.7-14.3-32-32-32H448zm0 192H576v64H448V224zm-32 0v64c0 17.7 14.3 32 32 32H576c17.7 0 32-14.3 32-32V224c0-17.7-14.3-32-32-32H448c-17.7 0-32 14.3-32 32z"/></svg>
